!!!COA:	Josquin des Prez
!!!CDT:	~1450-1521/08/27
!!!OTL:	La Spagna
!!!AGN:	Chanson
!!!SCT:	NJE 29.12
!!!SCA:	New Josquin Edition 29.12
!!!voices:	5
**kern	**kern	**kern	**kern	**kern
*staff5	*staff4	*staff3	*staff2	*staff1
*Ivox	*Ivox	*Ivox	*Ivox	*Ivox
*I"Bassus2	*I"Bassus1	*I"Tenor2	*I"Tenor1	*I"Superius
*I'B2	*I'B1	*I'T2	*I'T1	*I'S
*clefF4	*clefF4	*clefGv2	*clefGv2	*clefG2
*k[]	*k[]	*k[]	*k[]	*k[]
*M3/1	*M3/1	*M3/1	*M3/1	*M3/1
*met(O|)	*met(O|)	*met(O|)	*met(O|)	*met(O|)
=1-	=1-	=1-	=1-	=1-
2.AA/	1E	0A	0.r	0.r
4BB/	.	.	.	.
2C/	2E\	.	.	.
1D	1F	.	.	.
.	.	1A	.	.
4C/	4E\	.	.	.
4BB/	4D\	.	.	.
=2	=2	=2	=2	=2
2C/	2E\	0A	1r	0.r
2D\	1D	.	.	.
1AA	.	.	1.A	.
.	2C/	.	.	.
2r	2D\	2F/	.	.
2D\	2BB/	2G/	[2d\	.
=3	=3	=3	=3	=3
1E	1AA	0A	2d\]	2r
.	.	.	2c\	2e/
2D\	2r	.	1d	2.f/
1.F	1.D	.	.	.
.	.	.	.	4g/
.	.	1A	2r	2a/
.	.	.	2d\	2d/
=4	=4	=4	=4	=4
2E\	2AA/	0A	2c\	2e/
1.D	1.F	.	1.d	1f
.	.	.	.	2d/
2AA/	2E\	1A	2c\	2e/
2D\	2D\	.	2d\	2f/
=5	=5	=5	=5	=5
1r	2E\	1.E	2B\	2g/
.	2AA/	.	1c	2.a/
1r	2C/	.	.	.
.	.	.	.	4g/
.	2D\	2F/	2B\	2.f/
2r	1C	1G	[1c	.
.	.	.	.	4e/
[2C/	.	.	.	4e/
.	.	.	.	4d/
=6	=6	=6	=6	=6
4C/]	4FF/	1A	2c\]	2f/
4BB/	4GG/	.	.	.
4C/	4AA/	.	2.c\	2.e/
4D\	4BB/	.	.	.
2E\	2C/	2G/	.	.
.	.	.	4B\	4A/
2D\	2D\	2F/	4A/	1d
.	.	.	4G/	.
2C/	1AA	1E	[1A	.
2AA/	.	.	.	2c#i/
=7	=7	=7	=7	=7
2r	1r	0D	1A]	2.d/
2.D\	.	.	.	.
.	.	.	.	4e/
.	2.D\	.	1A	2f/
4E\	.	.	.	.
2F\	.	.	.	1d
.	4E\	.	.	.
2D\	2F\	1D	1r	.
2GG/	[2G\	.	.	4c/
.	.	.	.	4B/
=8	=8	=8	=8	=8
1D	2G\]	0D	2r	2A/
.	2F\	.	2A/	1d
2GG/	2.G\	.	2.B-\	.
1BB-i	.	.	.	2c/
.	8F\L	.	8A/L	.
.	8E\J	.	8G/J	.
.	2D\	2D/	2F/	1d
4AA/	2BB-i/	2E/	2B-i\	.
4GG/	.	.	.	.
=9	=9	=9	=9	=9
2FF/	2C/	0F	2A/	2r
1BB-i	1.D	.	2.B-i\	2d/
.	.	.	.	1d
.	.	.	4A/	.
2AA/	.	.	2F/	.
1BB-i	2C/	1F	2r	2r
.	2D\	.	2B-i\	2d/
=10	=10	=10	=10	=10
1FF	1C	0F	2A/	2.f/
.	.	.	2.F/	.
.	.	.	.	4g/
2r	2.FF/	.	.	2a/
.	.	.	4G/	.
2.FF/	.	.	4A/	2f/
.	4GG/	.	4B\	.
.	4AA/	1F	1c	1a
4GG/	4BB/	.	.	.
4AA/	[2C/	.	.	.
4BB/	.	.	.	.
=11	=11	=11	=11	=11
2.C/	4C/]	0E	2c\	2.g/
.	4BB/	.	.	.
.	2E\	.	1.c	.
4D\	.	.	.	4f/
2E\	2AA/	.	.	2e/
2AA/	2AA/	.	.	1a
1E	1r	1E	1B	.
.	.	.	.	2g#i/
=12	=12	=12	=12	=12
1AA	2r	1.A	2A/	2a/
.	2AA/	.	2.c\	2g/
1r	2C/	.	.	2f/
.	.	.	4B\	.
.	2D\	4G/	4A/	1d
.	.	4F/	4G/	.
1r	1AA	1E	1A	.
.	.	.	.	2c#i/
=13	=13	=13	=13	=13
2r	2F\	0D	1A	0.d
2F\	2D\	.	.	.
2D\	2.F\	.	2r	.
2.F\	.	.	2.d\	.
.	4E\	.	.	.
.	2D\	1D	.	.
4D\	.	.	4c\	.
[2G\	2GG/	.	2B\	.
=14	=14	=14	=14	=14
2G\]	1D	0D	1A	1r
2F#i\	.	.	.	.
2G\	2GG/	.	2G/	2r
2Fni\	2D\	.	2A/	2f/
2G\	2GG/	1D	2B\	2d/
4F\	2D\	.	[2A/	[2f/
4E\	.	.	.	.
=15	=15	=15	=15	=15
2D\	1r	0D	2A/]	4f/]
.	.	.	.	4d/
2GG/	.	.	2G/	1g
1D	2r	.	1A	.
.	1D	.	.	2f#i/
2GG/	.	1D	1B	1g
2BB/	2BB/	.	.	.
=16	=16	=16	=16	=16
2AA/	2C/	2.E/	1c	1r
2.C/	2.AA/	.	.	.
.	.	4D/	.	.
.	.	2E/	1A	1r
4BB/	4BB/	.	.	.
2AA/	1C	1F	.	.
1GG	.	.	1B	2r
.	2BB/	2E/	.	2g/
=17	=17	=17	=17	=17
1FF	1C	0F	2r	2a/
.	.	.	2A/	2.f/
2r	2.D\	.	2A/	.
.	.	.	.	4g/
2.F\	.	.	2A/	2a/
.	4C/	.	.	.
.	2.BB/	1F	1B	2.d/
4E\	.	.	.	.
2D\	.	.	.	.
.	8AA/L	.	.	4e/
.	8GG/J	.	.	.
=18	=18	=18	=18	=18
2C/	2FF/	2.F/	1.A	1f
2.D\	2.F\	.	.	.
.	.	4E/	.	.
.	.	2F/	.	1d
4C/	4E\	.	.	.
2BB/	1D	1G	2d\	.
1AA	.	.	2c\	1r
.	2C/	2F/	4B\	.
.	.	.	4A/	.
=19	=19	=19	=19	=19
0GG	2D\	0G	2B\	2r
.	2C/	.	1c	2.g/
.	1D	.	.	.
.	.	.	.	4f/
.	.	.	2B\	4e/
.	.	.	.	4d/
2r	2.C/	1G	1c	2.e/
[2D\	.	.	.	.
.	4BB/	.	.	8d/L
.	.	.	.	8c/J
=20	=20	=20	=20	=20
2D\]	2GG/	2.G/	2B\	2d/
1C	2G\	.	2c\	1.e
.	.	4F/	.	.
.	2E\	2G/	1r	.
4BB/	2C/	1A	.	.
4AA/	.	.	.	.
1BB	1D	.	1r	2.d/
.	.	2G/	.	.
.	.	.	.	8c/L
.	.	.	.	8B/J
=21	=21	=21	=21	=21
2AA/	2E\	0A	2r	2c/
2.FF/	2F\	.	2c\	2.A/
.	2.FF/	.	2.A/	.
4GG/	.	.	.	4B/
2AA/	.	.	.	2c/
.	4GG/	.	4B\	.
2FF/	2AA/	1A	2c\	4A/
.	.	.	.	4B/
2F\	2FF/	.	[2A/	4c/
.	.	.	.	4d/
=22	=22	=22	=22	=22
2E\	2C/	0A	4A/]	2e/
.	.	.	4G/	.
1D	2D\	.	2F/	2f/
.	1AA	.	1E	2r
2C/	.	.	.	2e/
2D\	1r	2F/	2r	2.d/
2BB/	.	2G/	2D/	.
.	.	.	.	8c/L
.	.	.	.	8B/J
=23	=23	=23	=23	=23
2AA/	0.r	0A	2E/	2c/
2D\	.	.	2F/	2d/
2C/	.	.	2r	2e/
2D\	.	.	2D/	1d
1AA	.	1A	2.E/	.
.	.	.	.	2c#i/
.	.	.	4F/	.
=24	=24	=24	=24	=24
1.D	2.GG/	2.B\	0G	1d
.	4AA/	4c\	.	.
.	2BB/	2d\	.	2r
2E\	2C/	1c	.	2c/
1D	1BB	.	1G	1d
.	.	2B\	.	.
=25	=25	=25	=25	=25
1C	2.C/	0c	1G	2e/
.	.	.	.	2.g/
.	4D\	.	.	.
1r	2E\	.	2G/	.
.	.	.	.	4f/
.	2F\	.	2A/	1f
2r	1C	1c	1G	.
[2C/	.	.	.	2e/
=26	=26	=26	=26	=26
2C/]	1.FF	0c	2F/	1f
1F	.	.	2.A/	.
.	.	.	.	1r
.	.	.	4G/	.
4E\	2GG/	.	1G	.
4D\	.	.	.	.
1C	1AA	1c	.	1r
.	.	.	2F#i/	.
=27	=27	=27	=27	=27
1D	0GG	0B	2.G/	2r
.	.	.	.	1g
.	.	.	4F/	.
2BB/	.	.	2D/	.
2.D\	.	.	2.G/	4f/
.	.	.	.	4e/
.	1GG	1c	.	2d/
4C/	.	.	4A/	.
4BB/	.	.	4B\	[2g/
4AA/	.	.	4c\	.
=28	=28	=28	=28	=28
2GG/	0.r	2B\	2d\	2g/]
2AA/	.	2c\	2.A/	2e/
2D\	.	2d\	.	2f/
.	.	.	4G/	.
2AA/	.	2c\	2A/	1a
1E	.	1B	2G/	.
.	.	.	2E/	2g/
=29	=29	=29	=29	=29
1F	2.FF/	0A	2r	1a
.	.	.	2A/	.
.	4GG/	.	.	.
2r	2AA/	.	2.F/	2r
2F\	2FF/	.	.	2a/
.	.	.	4G/	.
2.D\	2F\	1A	2A/	2.f/
.	[2D\	.	2F/	.
4E\	.	.	.	4g/
=30	=30	=30	=30	=30
2F\	4D\]	0A	2.D/	2a/
.	4E\	.	.	.
2.D\	1.F	.	.	2f/
.	.	.	4E/	.
.	.	.	2F/	2.d/
4E\	.	.	.	.
1F	.	.	2.D/	.
.	.	.	.	4e/
.	2.D\	1A	.	1f
.	.	.	4E/	.
2D\	.	.	4F/	.
.	4C/	.	4G/	.
=31	=31	=31	=31	=31
1E	1AA	0c	1A	2e/
.	.	.	.	2.a/
1AA	1r	.	2r	.
.	.	.	.	4g/
.	.	.	2.A/	2f/
1r	1r	1c	.	2e/
.	.	.	4G/	.
.	.	.	2F/	[2a/
=32	=32	=32	=32	=32
1.AA	0.r	2.c\	2E/	4a/]
.	.	.	.	4g/
.	.	.	2.A/	2f/
.	.	4B\	.	.
.	.	2c\	.	2e/
.	.	.	4G/	.
2D\	.	1d	4F/	2d/
.	.	.	4E/	.
1AA	.	.	1A	1e
.	.	2c#i\	.	.
=33	=33	=33	=33	=33
1.D	2r	0d	2r	2.d/
.	2F\	.	1A	.
.	.	.	.	4e/
.	2.D\	.	.	2f/
2GG/	.	.	2B\	2g/
.	4E\	.	.	.
1D	2F\	1d	1A	2f/
.	[2D\	.	.	[2a/
=34	=34	=34	=34	=34
2r	4D\]	0d	2F/	4a/]
.	4C/	.	.	4g/
2GG/	4D\	.	2G/	1g
.	4E\	.	.	.
1D	2F\	.	1A	.
.	2D\	.	.	2f/
1r	1E	2c\	2r	1g
.	.	2B\	2G/	.
=35	=35	=35	=35	=35
2r	1D	0d	2A/	2f/
2GG/	.	.	2B\	2g/
2D\	2r	.	2A/	2f/
2GG/	2.G\	.	2.B\	2.g/
2r	.	1d	.	.
.	4F\	.	4A/	4f/
2GG/	2G\	.	2B\	2g/
=36	=36	=36	=36	=36
2D\	2F\	0d	2A/	2a/
2GG/	2G\	.	2B\	2g/
2r	2.D\	.	2A/	2f/
2GG/	.	.	2G/	1g
.	4E\	.	.	.
1D	2F\	1d	1F	.
.	2D\	.	.	2f/
=37	=37	=37	=37	=37
2E\	2r	0G	2G/	2.g/
2.C/	2.E\	.	4A/	.
.	.	.	4B\	4f/
.	.	.	2c\	2e/
4BB/	4D\	.	.	.
4AA/	2BB/	.	2B\	2d/
4GG/	.	.	.	.
1AA	1AA	2E/	1A	2.c/
.	.	2F/	.	.
.	.	.	.	8B/L
.	.	.	.	8A/J
=38	=38	=38	=38	=38
2.GG/	1D	0G	1.d	1B
4AA/	.	.	.	.
2BB/	2r	.	.	1r
2C/	2E\	.	2c\	.
2BB/	2D\	1G	2.d\	1r
2C/	4E\	.	.	.
.	4C/	.	8c\L	.
.	.	.	8B\J	.
=39	=39	=39	=39	=39
2.AA/	1.E	0A	2c\	1r
.	.	.	2A/	.
4BB/	.	.	.	.
2C/	.	.	1r	2r
2D\	2F\	.	.	2d/
2C/	2E\	1A	2r	2e/
2D\	2F\	.	2A/	[2d/
=40	=40	=40	=40	=40
1GG	2G\	1d	1B	4d/]
.	.	.	.	4e/
.	2D\	.	.	4f/
.	.	.	.	4g/
1r	2F\	2c\	2A/	2a/
.	2G\	2B\	1.d	1g
1r	1D	1A	.	.
.	.	.	.	2f#i/
=41	=41	=41	=41	=41
2.D\	1GG	0G	1.B	[0.g
8C/L	.	.	.	.
8D/J	.	.	.	.
2E\	2r	.	.	.
2C/	2C/	.	2c\	.
2D\	2BB/	1G	2r	.
2E\	2C/	.	2c\	.
=42	=42	=42	=42	=42
2D\	2GG/	0G	2B\	1g]
2.E\	2.C/	.	2c\	.
.	.	.	2c\	1r
4D\	4BB/	.	.	.
2BB/	2GG/	.	2B\	.
1C	1AA	2E/	2A/	1r
.	.	2F/	2c\	.
=43	=43	=43	=43	=43
2D\	0.GG	0G	0.B	2r
2E\	.	.	.	1.g
2D\	.	.	.	.
2.G\	.	.	.	.
.	.	1G	.	2d/
4F\	.	.	.	.
4E\	.	.	.	2g/
4D\	.	.	.	.
=44	=44	=44	=44	=44
2E\	2.C/	0G	1c	2.e/
2.C/	.	.	.	.
.	4D\	.	.	4f/
.	2E\	.	2G/	2g/
4D\	.	.	.	.
2E\	2C/	.	2.c\	2e/
2C/	2.E\	1G	.	1g
.	.	.	4B\	.
2E\	.	.	2G/	.
.	8D\L	.	.	.
.	8E\J	.	.	.
=45	=45	=45	=45	=45
2.D\	2F\	0d	1.A	1f
.	1D	.	.	.
4E\	.	.	.	.
2F\	.	.	.	1r
1G	2GG/	.	2B\	.
.	1D	1d	1A	1r
2F#i\	.	.	.	.
=46	=46	=46	=46	=46
1G	2r	0d	1G	2r
.	2GG/	.	.	2g/
2r	2D\	.	2r	2f/
2GG/	2GG/	.	2G/	2g/
2D\	2r	1d	2F/	2a/
2GG/	2GG/	.	2G/	2g/
=47	=47	=47	=47	=47
2r	2D\	0d	2A/	2r
2GG/	2GG/	.	2G/	2g/
2D\	2r	.	2r	2f/
2GG/	2GG/	.	2G/	2g/
2r	2D\	1d	2F/	2a/
2GG/	2GG/	.	2G/	2g/
=48	=48	=48	=48	=48
2D\	2r	0d	2A/	2f/
2GG/	2GG/	.	2B\	1g
2r	1D	.	1A	.
2D\	.	.	.	2f#i/
2D\	1GG	1d	1G	1g
2D\	.	.	.	.
=49	=49	=49	=49	=49
0.AA	0.r	0c	1A	2e/
.	.	.	.	2.a/
.	.	.	2E/	.
.	.	.	.	4g/
.	.	.	2.A/	2f/
.	.	1c	.	2e/
.	.	.	4G/	.
.	.	.	2F/	2A/
=50	=50	=50	=50	=50
0.r	0AA	0c	2E/	2r
.	.	.	2A/	1a
.	.	.	2r	.
.	.	.	1A	4g/
.	.	.	.	4f/
.	1AA	1c	.	2e/
.	.	.	4G/	2A/
.	.	.	4F/	.
=51	=51	=51	=51	=51
0AA	0.r	0c	2E/	2r
.	.	.	2A/	2a/
.	.	.	2r	2e/
.	.	.	2A/	2f/
1AA	.	1c	2E/	4e/
.	.	.	.	4d/
.	.	.	2F/	4c/
.	.	.	.	4B/
=52	=52	=52	=52	=52
0E	0AA	0c	2E/	2A/
.	.	.	2A/	1a
.	.	.	2r	.
.	.	.	1A	4g/
.	.	.	.	4f/
1E	1AA	1c	.	1e
.	.	.	2A/	.
=53	=53	=53	=53	=53
1F	1D	0d	0A	2d/
.	.	.	.	2.f/
2r	1C	.	.	.
.	.	.	.	4e/
2.F\	.	.	.	4d/
.	.	.	.	4c/
.	2r	1d	1A	2d/
4E\	.	.	.	.
4D\	[2F\	.	.	2A/
4C/	.	.	.	.
=54	=54	=54	=54	=54
2D\	4F\]	0d	2r	2r
.	4E\	.	.	.
2GG/	4D\	.	2B\	2a/
.	4C/	.	.	.
2r	2F\	.	2A/	2g/
2D\	2GG/	.	2B\	1f
1D	2r	1d	2.A/	.
.	2F\	.	.	4e/
.	.	.	4B\	4d/
=55	=55	=55	=55	=55
2.C/	2E\	0G	1c	1e
.	2C/	.	.	.
4BB/	.	.	.	.
2GG/	2D\	.	2B\	2d/
2C/	2C/	.	2c\	2e/
2BB/	1r	1G	2d\	2d/
2C/	.	.	2c\	2e/
=56	=56	=56	=56	=56
2D\	0.r	1.G	2B\	2f/
2C/	.	.	1c	2.g/
1D	.	.	.	.
.	.	.	.	4f/
.	.	2F/	2B\	1f
1C	.	1G	2c\	.
.	.	.	2c\	2e/
=57	=57	=57	=57	=57
0.FF	0C	0F	0.A	0.f
.	1C	1F	.	.
=58	=58	=58	=58	=58
1.BB-i	1.D	0F	2.B-i\	0f
.	.	.	4A/	.
.	.	.	4F/	.
.	.	.	4G/	.
4AA/	1C	.	1A	.
4GG/	.	.	.	.
1FF	.	1F	.	1c
.	4BB/	.	4G/	.
.	4AA/	.	4F/	.
=59	=59	=59	=59	=59
0.r	2.GG/	0B-	2G/	1d
.	.	.	2D/	.
.	4FF/	.	.	.
.	4GG/	.	2G/	2r
.	4AA/	.	.	.
.	1BB-i	.	2F/	2d/
.	.	1B-i	2D/	2f/
.	4AA/	.	2E/	2g/
.	4GG/	.	.	.
=60	=60	=60	=60	=60
2.C/	1FF	2A/	2F/	1a
.	.	2F/	2.c\	.
4D\	.	.	.	.
2E\	1r	2G/	.	2g/
.	.	.	4B\	.
2F\	.	2A/	1A	2f/
1G	1r	1B-i	.	2d/
.	.	.	2G/	2e/
=61	=61	=61	=61	=61
2.D\	1F	0A	2A/	2f/
.	.	.	2.D/	2.a/
4E\	.	.	.	.
2F\	1D	.	.	.
.	.	.	4E/	4g/
1D	.	.	4F/	1f
.	.	.	4G/	.
.	2r	1A	1A	.
4C/	2D\	.	.	4e/
4BB/	.	.	.	4d/
=62	=62	=62	=62	=62
2AA/	2E\	0A	0.r	2c/
2.F\	2.D\	.	.	2d/
.	.	.	.	2f/
4E\	4C/	.	.	.
2C/	2AA/	.	.	2e/
1D	1BB	2F/	.	1d
.	.	2G/	.	.
=63	=63	=63	=63	=63
2.E\	0AA	0A	2r	2c/
.	.	.	2c\	1e
4D\	.	.	.	.
2C/	.	.	2A/	.
2AA/	.	.	2.c\	2f/
2.E\	1AA	1A	.	2e/
.	.	.	4B\	.
.	.	.	2c\	[2a/
8D/L	.	.	.	.
8C/J	.	.	.	.
=64	=64	=64	=64	=64
2F\	1D	0A	2d\	4a/]
.	.	.	.	4g/
2D\	.	.	2.A/	2f/
2E\	2C/	.	.	2e/
.	.	.	4G/	.
2F\	2D\	.	2F/	1d
2r	1AA	1A	2E/	.
2E\	.	.	[2A/	2c#i/
=65	=65	=65	=65	=65
2F\	2r	0D	2A/]	1d
1G	2GG/	.	2G/	.
.	1D	.	1A	1r
2F\	.	.	.	.
2G\	2GG/	1D	2B\	2r
[2F\	[2D\	.	[2A/	[2d/
=66	=66	=66	=66	=66
2F\]	1D]	0D	2A/]	4d/]
.	.	.	.	4e/
4E\	.	.	2.d\	2f/
4D\	.	.	.	.
1G	2BB/	.	.	2d/
.	.	.	4c\	.
.	2GG/	.	2B\	1g
1r	1D	1D	1A	.
.	.	.	.	2f/
=67	=67	=67	=67	=67
0.r	2r	0E	2G/	2g/
.	2AA/	.	2A/	1e
.	2C/	.	2G/	.
.	2AA/	.	2c\	1a
.	1E	1E	2B\	.
.	.	.	2B\	2g/
=68	=68	=68	=68	=68
2r	2AA/	0E	2A/	2a/
2G\	2.E\	.	2B\	2.g/
2G\	.	.	1c	.
.	4D\	.	.	4f/
2G\	4C/	.	.	1e
.	4BB/	.	.	.
1C	2C/	2E/	1c	.
.	4BB/	2F/	.	4d/
.	4AA/	.	.	4c/
=69	=69	=69	=69	=69
2D\	1GG	0G	2r	1B
4C/	.	.	2d\	.
4D\	.	.	.	.
2E\	1C	.	2.c\	2r
2C/	.	.	.	2e/
.	.	.	8B/L	.
.	.	.	8A/J	.
2D\	2GG/	1G	2B\	2d/
2E\	[2C/	.	[2c\	[2e/
=70	=70	=70	=70	=70
2.C/	4C/]	2.G/	2c\]	1e]
.	4D\	.	.	.
.	4E\	.	2c\	.
4BB/	4F\	4A/	.	.
2GG/	2G\	2B\	1r	2d/
2AA/	2E\	1A	.	2c/
1E	2r	.	1r	1B
.	[2E\	2G#i/	.	.
=71	=71	=71	=71	=71
1AA	2E\]	0A	1c	1A
.	2E\	.	.	.
2.D\	2F\	.	1d	2r
.	2D\	.	.	2f/
4C/	.	.	.	.
2AA/	2E\	1A	2c\	2e/
[2D\	2D\	.	[2d\	[2f/
=72	=72	=72	=72	=72
1D]	2r	0A	4d\]	1f]
.	.	.	8c\L	.
.	.	.	8B\J	.
.	2D\	.	4A/	.
.	.	.	4B\	.
2C/	2E\	.	2c\	2e/
2D\	2.F\	.	2A/	2d/
1AA	.	1A	2r	2c/
.	4E\	.	.	.
.	4D\	.	[2c\	2a/
.	4C/	.	.	.
=73	=73	=73	=73	=73
2r	2C/	0c	4c\]	2g/
.	.	.	4B\	.
1.F	1.FF	.	4A/	1.a
.	.	.	4G/	.
.	.	.	2A/	.
.	.	.	2F/	.
2E\	2C/	1c	2G/	2g/
2F\	2FF/	.	2A/	2f/
=74	=74	=74	=74	=74
2.C/	2r	0c	2.G/	1e
.	2.C/	.	.	.
4D\	.	.	4F/	.
2E\	.	.	2G/	1r
.	4BB/	.	.	.
2C/	4AA/	.	2.A/	.
.	4GG/	.	.	.
2.E\	1AA	1c	.	1r
.	.	.	4G/	.
.	.	.	4E/	.
4C/	.	.	4F/	.
=75	=75	=75	=75	=75
1D	0GG	0B	0.G	2r
.	.	.	.	2d/
2r	.	.	.	2e/
2D\	.	.	.	2d/
2E\	1GG	1B	.	2.g/
2D\	.	.	.	.
.	.	.	.	4f/
=76	=76	=76	=76	=76
2.G\	2r	2B\	2r	2.d/
.	2C/	2c\	2E/	.
4F\	.	.	.	8e/L
.	.	.	.	8f/J
2D\	2BB/	2d\	2G/	2d/
2E\	2AA/	2c\	2A/	1a
2r	2.E\	1B	2r	.
[2E\	.	.	2B\	2g#i/
.	4D\	.	.	.
=77	=77	=77	=77	=77
2E\]	2AA/	0A	2c\	1a
2F\	2D\	.	2d\	.
2E\	2AA/	.	2c\	2r
2D\	2F\	.	2d\	2.a/
2AA/	2E\	1A	2c\	.
.	.	.	.	4g/
2D\	[2D\	.	2d\	[2f/
=78	=78	=78	=78	=78
2D\	2D\]	1.A	1r	2f/]
2r	2C/	.	.	2e/
1r	2D\	.	2r	2f/
.	2E\	2G/	2c\	1g
1r	1D	1A	2.d\	.
.	.	.	.	2f#i/
.	.	.	4c\	.
=79	=79	=79	=79	=79
2D\	2GG/	0G	2B\	1g
2E\	2C/	.	2c\	.
2D\	2GG/	.	2B\	2r
2C/	2E\	.	2c\	2.g/
2GG/	2D\	1G	2B\	.
.	.	.	.	4f/
2C/	[2C/	.	2c\	2e/
=80	=80	=80	=80	=80
2C/	2C/]	1.G	1r	2d/
2r	2BB/	.	.	2e/
1r	2C/	.	2c\	1f
.	2D\	2F/	2B\	.
1r	1C	1G	1c	1e
=81	=81	=81	=81	=81
1C	1FF	0F	2.A/	2f/
.	.	.	.	2.a/
.	.	.	4B\	.
1C	1FF	.	2c\	.
.	.	.	.	4g/
.	.	.	2A/	4f/
.	.	.	.	4e/
1D	2.BB-i/	1F	1B-i	2.d/
.	4AA/	.	.	4e/
=82	=82	=82	=82	=82
1C	4GG/	1.F	1A	2f/
.	4FF/	.	.	.
.	2FF/	.	.	2.c/
1r	2FF/	.	2r	.
.	.	.	.	4d/
.	2C/	2E/	2c\	1e
2r	1D	1F	2A/	.
2D\	.	.	2B\	2d/
=83	=83	=83	=83	=83
2.C/	1AA	0E	1c	2.e/
4D\	.	.	.	4f/
2E\	1r	.	2B\	2g/
2AA/	.	.	2A/	1a
1E	1r	1E	1B	.
.	.	.	.	2g#i/
=84	=84	=84	=84	=84
1AA	2r	1.E	2A/	1a
.	2E\	.	2.c\	.
1r	2C/	.	.	2r
.	.	.	4B\	.
.	2D\	2D/	1d	1.a
1r	1AA	1E	.	.
.	.	.	2c#i\	.
=85	=85	=85	=85	=85
2r	2r	0D	1d	2.f/
2D\	2F\	.	.	.
.	.	.	.	4e/
2BB/	1G	.	2r	2d/
2GG/	.	.	1.d	2g/
1D	2r	1D	.	2f/
.	2F\	.	.	[2a/
=86	=86	=86	=86	=86
1GG	1G	0D	2B\	2a/]
.	.	.	2G/	1g
1D	2F\	.	1A	.
.	2D\	.	.	2f#i/
1GG	2r	1D	2B\	1g
.	2D\	.	2G/	.
=87	=87	=87	=87	=87
1r	2AA/	1.E	2A/	2r
.	2E\	.	2B\	2g/
2AA/	2C/	.	2c\	2a/
2D\	2F\	2F/	2A/	2.f/
1C	2r	1G	1c	.
.	.	.	.	8e/L
.	.	.	.	8d/J
.	[2C/	.	.	2e/
=88	=88	=88	=88	=88
4FF/	4C/]	1A	1c	2f/
4GG/	4BB/	.	.	.
4AA/	4C/	.	.	2.e/
4BB/	4D\	.	.	.
2C/	2E\	2G/	2c\	.
.	.	.	.	4A/
2D\	2D\	2F/	2A/	1d
1AA	2C/	1E	[1A	.
.	2AA/	.	.	2c#i/
=89	=89	=89	=89	=89
2r	1.F	[0.Dl	1A]	[0.dl
2.D\	.	.	.	.
.	.	.	2r	.
4C/	.	.	.	.
4BB/	2D\	.	2c\	.
4AA/	.	.	.	.
[1GG	[1G	.	2B\	.
.	.	.	2G/	.
=90	=90	=90	=90	=90
1GG]	1G]	0.D]	1B	0.d]
0Dl	0Fl	.	0Al	.
==	==	==	==	==
*-	*-	*-	*-	*-
!!!RDF**kern: l=long note in original notation
!!!RDF**kern: i=editorial accidental
!!!ENC:	Chris Gage 07-01-2014
!!!END:	2014/08/09/
!!!EED:	Jesse Rodin
!!!EEV:	2016/03/14/
!!attribution-level@Jos: 4 (questionable)
!!!ONB:	Translated from MusicXML and edited on 2016/03/14/ by Craig Sapp
!!muse2ps: C^@{COA}?\n@{SCT}^i2I150v85,85,85,85,150Q16
